svgs/solid/books-medical.svg

<svg xmlns="http://www.w3.org/2000/svg" viewBox="0 0 576 512"><!--! Font Awesome Pro 6.6.0 by @fontawesome - https://fontawesome.com License - https://fontawesome.com/license (Commercial License) Copyright 2024 Fonticons, Inc. --><path d="M64 32C64 14.3 78.3 0 96 0l64 0c17.7 0 32 14.3 32 32l0 64L64 96l0-64zm0 384l128 0 0 64c0 17.7-14.3 32-32 32l-64 0c-17.7 0-32-14.3-32-32l0-64zM224 32c0-17.7 14.3-32 32-32l64 0c17.7 0 32 14.3 32 32l0 64L224 96l0-64zm0 96l128 0 0 256-128 0 0-256zm0 288l128 0 0 64c0 17.7-14.3 32-32 32l-64 0c-17.7 0-32-14.3-32-32l0-64zm203.6-19.9L384 232.6l0-89.9 100.4-26.9 66 247.4L427.6 396.1zM476.2 85L384 109.6 384 11l36.9-9.9c16.9-4.6 34.4 5.5 38.9 22.6L476.2 85zM435.8 427l122.8-32.9 16.3 61.1c4.5 17-5.5 34.5-22.5 39.1l-61.4 16.5c-16.9 4.6-34.4-5.5-38.9-22.6L435.8 427zM64 176c0-8.8 7.2-16 16-16l32 0c8.8 0 16 7.2 16 16l0 48 48 0c8.8 0 16 7.2 16 16l0 32c0 8.8-7.2 16-16 16l-48 0 0 48c0 8.8-7.2 16-16 16l-32 0c-8.8 0-16-7.2-16-16l0-48-48 0c-8.8 0-16-7.2-16-16l0-32c0-8.8 7.2-16 16-16l48 0 0-48z"/></svg>

<svg xmlns="http://www.w3.org/2000/svg" viewBox="0 0 576 512"><!--! Font Awesome Pro 6.4.0 by @fontawesome - https://fontawesome.com License - https://fontawesome.com/license (Commercial License) Copyright 2023 Fonticons, Inc. --><path d="M64 32C64 14.3 78.3 0 96 0h64c17.7 0 32 14.3 32 32V96H64V32zm0 384H192v64c0 17.7-14.3 32-32 32H96c-17.7 0-32-14.3-32-32V416zM224 32c0-17.7 14.3-32 32-32h64c17.7 0 32 14.3 32 32V96H224V32zm0 96H352V384H224V128zm0 288H352v64c0 17.7-14.3 32-32 32H256c-17.7 0-32-14.3-32-32V416zm203.6-19.9L384 232.6V142.8l100.4-26.9 66 247.4L427.6 396.1zM476.2 85L384 109.6V11l36.9-9.9c16.9-4.6 34.4 5.5 38.9 22.6L476.2 85zM435.8 427l122.8-32.9 16.3 61.1c4.5 17-5.5 34.5-22.5 39.1l-61.4 16.5c-16.9 4.6-34.4-5.5-38.9-22.6L435.8 427zM64 176c0-8.8 7.2-16 16-16h32c8.8 0 16 7.2 16 16v48h48c8.8 0 16 7.2 16 16v32c0 8.8-7.2 16-16 16H128v48c0 8.8-7.2 16-16 16H80c-8.8 0-16-7.2-16-16V288H16c-8.8 0-16-7.2-16-16V240c0-8.8 7.2-16 16-16H64V176z"/></svg>
